svg/business/calendar_3_line.svg

<?xml version="1.0" encoding="UTF-8"?>
<svg width="24px" height="24px" viewBox="0 0 24 24" version="1.1" xmlns="http://www.w3.org/2000/svg" xmlns:xlink="http://www.w3.org/1999/xlink">
    <title>calendar_3_line</title>
    <g id="Icon" stroke="none" stroke-width="1" fill="none" fill-rule="evenodd">
        <g id="Business" transform="translate(-144.000000, -480.000000)" fill-rule="nonzero">
            <g id="calendar_3_line" transform="translate(144.000000, 480.000000)">
                <path d="M24,0 L24,24 L0,24 L0,0 L24,0 Z M12.5935,23.2578 L12.5819,23.2595 L12.5109,23.295 L12.4919,23.2987 L12.4767,23.295 L12.4057,23.2595 C12.3958,23.2564 12.387,23.259 12.3821,23.2649 L12.378,23.2758 L12.3609,23.7031 L12.3659,23.7235 L12.3769,23.7357 L12.4805,23.8097 L12.4953,23.8136 L12.5071,23.8097 L12.6107,23.7357 L12.6233,23.7197 L12.6267,23.7031 L12.6096,23.2758 C12.6076,23.2657 12.601,23.2593 12.5935,23.2578 Z M12.8584,23.1453 L12.8445,23.1473 L12.6598,23.2397 L12.6499,23.2499 L12.6472,23.2611 L12.6651,23.6906 L12.6699,23.7034 L12.6784,23.7105 L12.8793,23.8032 C12.8914,23.8069 12.9022,23.803 12.9078,23.7952 L12.9118,23.7812 L12.8777,23.1665 C12.8753,23.1546 12.8674,23.147 12.8584,23.1453 Z M12.143,23.1473 C12.1332,23.1424 12.1222,23.1453 12.1156,23.1526 L12.1099,23.1665 L12.0758,23.7812 C12.0751,23.7927 12.0828,23.8019 12.0926,23.8046 L12.1083,23.8032 L12.3092,23.7105 L12.3186,23.7024 L12.3225,23.6906 L12.3404,23.2611 L12.3372,23.2485 L12.3278,23.2397 L12.143,23.1473 Z" id="MingCute"></path>
                <path d="M18,3 C19.1046,3 20,3.89543 20,5 L20,7 L20.191,7 C21.3061,7 22.0313,8.17347 21.5327,9.17082 L20,12.2361 L20,19 C20,20.1046 19.1046,21 18,21 L6.00005,21 C4.89548,21 4.00005,20.1046 4.00005,19 L4.00005,12.2361 L2.46742,9.17082 C1.96875,8.17347 2.69399,7 3.80906,7 L4.00005,7 L4.00005,5 C4.00005,3.89543 4.89548,3 6.00005,3 L18,3 Z M19.382,9 L4.61808,9 L5.89447,11.5528 C5.96959,11.703 6.00334,11.8631 6.00005,12.0201 L6.00005,19 L18,19 L18,12.0201 C17.9968,11.8631 18.0305,11.703 18.1056,11.5528 L19.382,9 Z M14.5,11 C15.5543909,11 16.4181678,11.81585 16.4945144,12.8507339 L16.5,13 L16.5,15 C16.5,16.0543909 15.68415,16.9181678 14.6492661,16.9945144 L14.5,17 L13.5,17 C12.4457045,17 11.5818409,16.18415 11.5054861,15.1492661 L11.5,15 L11.5,13 C11.5,11.9456091 12.3159411,11.0818322 13.3507463,11.0054856 L13.5,11 L14.5,11 Z M10.4935665,11.8999151 L10.5,12.0162 L10.5,16 C10.5,16.5523 10.0523,17 9.50005,17 C8.98720929,17 8.56454214,16.613973 8.50677766,16.1166239 L8.50005,16 L8.50005,13.5002 C8.13351,13.4999 7.7807,13.2974 7.60562,12.9472 C7.37627214,12.4884857 7.53253745,11.9378561 7.95153124,11.6637731 L8.05283,11.6056 L9.03836,11.1128 C9.63921158,10.8123474 10.3349768,11.1717114 10.4747961,11.788483 L10.4935665,11.8999151 Z M14.5,13 L13.5,13 L13.5,15 L14.5,15 L14.5,13 Z M18,5 L6.00005,5 L6.00005,7 L18,7 L18,5 Z" id="形状" fill="#09244B"></path>
            </g>
        </g>
    </g>
</svg>

<svg xmlns="http://www.w3.org/2000/svg" width="24" height="24"><g fill="none" fill-rule="nonzero"><path d="M24 0v24H0V0zM12.594 23.258l-.012.002-.071.035-.02.004-.014-.004-.071-.036c-.01-.003-.019 0-.024.006l-.004.01-.017.428.005.02.01.013.104.074.015.004.012-.004.104-.074.012-.016.004-.017-.017-.427c-.002-.01-.009-.017-.016-.018m.264-.113-.014.002-.184.093-.01.01-.003.011.018.43.005.012.008.008.201.092c.012.004.023 0 .029-.008l.004-.014-.034-.614c-.003-.012-.01-.02-.02-.022m-.715.002a.023.023 0 0 0-.027.006l-.006.014-.034.614c0 .012.007.02.017.024l.015-.002.201-.093.01-.008.003-.011.018-.43-.003-.012-.01-.01z"/><path fill="#09244B" d="M18 3a2 2 0 0 1 2 2v2h.191a1.5 1.5 0 0 1 1.342 2.17L20 12.237V19a2 2 0 0 1-2 2H6a2 2 0 0 1-2-2v-6.764L2.467 9.171A1.5 1.5 0 0 1 3.81 7H4V5a2 2 0 0 1 2-2zm1.382 6H4.618l1.276 2.553c.076.15.11.31.106.467V19h12v-6.98a.997.997 0 0 1 .106-.467zM14.5 11a2 2 0 0 1 1.995 1.85l.005.15v2a2 2 0 0 1-1.85 1.995L14.5 17h-1a2 2 0 0 1-1.995-1.85L11.5 15v-2a2 2 0 0 1 1.85-1.995L13.5 11zm-4.006.9.006.116V16a1 1 0 0 1-1.993.117L8.5 16v-2.5a1 1 0 0 1-.548-1.836l.1-.058.986-.493c.601-.3 1.297.059 1.437.675zM14.5 13h-1v2h1zM18 5H6v2h12z"/></g></svg>
